dist/svg/delete.svg

<svg width="16" height="16" viewBox="0 0 16 16" fill="rgb(34, 34, 34)" xmlns="http://www.w3.org/2000/svg"><title>delete</title><path d="M11 3L10 1H5L4 3H1V4H2V14C2 14.552 2.448 15 3 15H12C12.552 15 13 14.552 13 14V4H14V3H11ZM5 13H4V5H5V13ZM7 13H6V5H7V13ZM9 13H8V5H9V13ZM11 13H10V5H11V13ZM5.5 2H9.5L10 3H5L5.5 2Z" fill="rgb(34, 34, 34)" fill-opacity="1.00"/></svg>

<!-- Generated by Trend Micro Style Portal -->
<svg version="1.1" xmlns="http://www.w3.org/2000/svg" width="16" height="16" viewBox="0 0 16 16">
  <title>delete</title>
  <path fill="rgb(34,34,34)" d="M11 3l-1-2h-5l-1 2h-3v1h1v10c0 0.552 0.448 1 1 1v0h9c0.552 0 1-0.448 1-1v0-10h1v-1zM5 13h-1v-8h1zM7 13h-1v-8h1zM9 13h-1v-8h1zM11 13h-1v-8h1zM5.5 2h4l0.5 1h-5z"></path>
</svg>
